X: 14
T: No_109_Tobacco_Dance_Song_(a).krn
N: Derived from No_109_Tobacco_Dance_Song_(a).krn
%%abc-version 2.0
%%abcx-abcm2ps-target-version 5.9.1 (29 Sep 2008)
%%abc-creator hum2abc beta
%%abcx-conversion-date 2019/03/15 08:35:44
%%humdrum-veritas 762015308
%%humdrum-veritas-data 2972606259
%%linebreak <none>
%%barnumbers 0
L: 1/8
M: 2/4
K: Ab clef=bass
[K:clef=bass][M:2/4]E,4- | 
E,4- | 
E,2z2 ]|:  
B,3/G,/!fermata!B,2 ||  
[M:3/4]G,4z2 ||  
[M:2/4]C3/B,/ A,3/E,/ | 
E,2E,2 | 
A,3/E,/F,2 | 
E,2E, z | 
C,3/E,/E,2 | 
E,2E,2 | 
A,3/E,/F,2 | 
E,2E, z ||  
[M:3/4]C,3/E,/E,2E,2 ||  
[M:2/4]A,3/E,/F,2 | 
E,2E, z :|]  



